icons/numix/24x24/status/synapse.svg

<?xml version="1.0" encoding="UTF-8" standalone="no"?>
<svg
   xmlns:dc="http://purl.org/dc/elements/1.1/"
   xmlns:cc="http://creativecommons.org/ns#"
   xmlns:rdf="http://www.w3.org/1999/02/22-rdf-syntax-ns#"
   xmlns:svg="http://www.w3.org/2000/svg"
   xmlns="http://www.w3.org/2000/svg"
   xmlns:sodipodi="http://sodipodi.sourceforge.net/DTD/sodipodi-0.dtd"
   xmlns:inkscape="http://www.inkscape.org/namespaces/inkscape"
   width="24"
   height="24"
   viewBox="0 0 24 24"
   id="svg2"
   version="1.1"
   inkscape:version="0.91 r"
   sodipodi:docname="synapse.svg">
  <metadata
     id="metadata72">
    <rdf:RDF>
      <cc:Work
         rdf:about="">
        <dc:format>image/svg+xml</dc:format>
        <dc:type
           rdf:resource="http://purl.org/dc/dcmitype/StillImage" />
      </cc:Work>
    </rdf:RDF>
  </metadata>
  <sodipodi:namedview
     pagecolor="#ffffff"
     bordercolor="#666666"
     borderopacity="1"
     objecttolerance="10"
     gridtolerance="10"
     guidetolerance="10"
     inkscape:pageopacity="0"
     inkscape:pageshadow="2"
     inkscape:window-width="718"
     inkscape:window-height="480"
     id="namedview70"
     showgrid="false"
     inkscape:zoom="9.8333333"
     inkscape:cx="12"
     inkscape:cy="12"
     inkscape:window-x="0"
     inkscape:window-y="21"
     inkscape:window-maximized="0"
     inkscape:current-layer="svg2" />
  <defs
     id="defs4">
    <filter
       id="0"
       filterUnits="objectBoundingBox"
       x="0"
       y="0"
       width="24"
       height="24">
      <feColorMatrix
         type="matrix"
         in="SourceGraphic"
         values="0 0 0 0 1 0 0 0 0 1 0 0 0 0 1 0 0 0 1 0"
         id="feColorMatrix7" />
    </filter>
    <mask
       id="1">
      <g
         filter="url(#0)"
         id="g10">
        <rect
           width="24"
           height="24"
           fill-opacity="0.302"
           id="rect12" />
      </g>
    </mask>
    <clipPath
       id="2">
      <path
         d="M 5 4 L 19 4 L 19 22 L 5 22 Z "
         id="path15" />
    </clipPath>
    <clipPath
       id="3">
      <path
         d="M 11.15625 4.367188 L 11.15625 6.332031 C 8.386719 6.679688 6.136719 8.71875 5.453125 11.390625 L 7.207031 11.390625 C 7.925781 9.460938 9.828125 7.957031 11.90625 7.96875 C 11.957031 7.96875 12.007812 7.96875 12.058594 7.96875 C 12.8125 7.972656 13.554688 8.160156 14.230469 8.5 C 15.441406 9.050781 16.339844 10.136719 16.78125 11.390625 L 18.542969 11.390625 C 17.863281 8.71875 15.613281 6.679688 12.84375 6.332031 L 12.84375 4.367188 Z M 5.453125 14.796875 C 6.136719 17.472656 8.386719 19.507812 11.15625 19.855469 L 11.15625 21.820312 L 12.84375 21.820312 L 12.84375 19.855469 C 15.613281 19.507812 17.863281 17.472656 18.542969 14.796875 L 16.804688 14.796875 C 16.121094 16.832031 14.011719 18.292969 11.875 18.214844 C 9.796875 18.226562 7.914062 16.730469 7.210938 14.796875 Z "
         id="path18" />
    </clipPath>
    <clipPath
       id="4">
      <path
         d="M 8 9 L 16 9 L 16 17 L 8 17 Z "
         id="path21" />
    </clipPath>
    <clipPath
       id="5">
      <path
         d="M 12 9.300781 C 9.945312 9.300781 8.28125 10.972656 8.28125 13.054688 C 8.28125 13.054688 8.257812 13.40625 8.363281 13.804688 L 14.078125 13.804688 C 13.921875 14.238281 13.644531 14.628906 13.269531 14.886719 C 12.40625 15.578125 11.097656 15.328125 10.359375 14.554688 L 8.59375 14.554688 C 9.167969 15.878906 10.476562 16.804688 12 16.804688 C 14.054688 16.804688 15.722656 15.125 15.722656 13.054688 C 15.722656 13.054688 15.722656 12.667969 15.648438 12.300781 L 9.933594 12.300781 C 10.253906 11.480469 11.023438 10.816406 11.914062 10.808594 C 11.960938 10.808594 12.003906 10.808594 12.046875 10.808594 C 12.648438 10.820312 13.226562 11.105469 13.632812 11.550781 L 15.410156 11.550781 C 14.835938 10.226562 13.527344 9.300781 12 9.300781 Z "
         id="path24" />
    </clipPath>
    <clipPath
       id="6">
      <rect
         width="24"
         height="24"
         id="rect27" />
    </clipPath>
    <g
       id="7"
       clip-path="url(#6)">
      <g
         clip-path="url(#2)"
         id="g30">
        <g
           clip-path="url(#3)"
           id="g32">
          <path
             d="M 11.15625 4.367188 L 11.15625 6.332031 C 8.386719 6.679688 6.136719 8.71875 5.453125 11.390625 L 7.207031 11.390625 C 7.925781 9.460938 9.828125 7.957031 11.90625 7.96875 C 11.957031 7.96875 12.007812 7.96875 12.058594 7.96875 C 12.8125 7.972656 13.554688 8.160156 14.230469 8.5 C 15.441406 9.050781 16.339844 10.136719 16.78125 11.390625 L 18.542969 11.390625 C 17.863281 8.71875 15.613281 6.679688 12.84375 6.332031 L 12.84375 4.367188 Z M 5.453125 14.796875 C 6.136719 17.472656 8.386719 19.507812 11.15625 19.855469 L 11.15625 21.820312 L 12.84375 21.820312 L 12.84375 19.855469 C 15.613281 19.507812 17.863281 17.472656 18.542969 14.796875 L 16.804688 14.796875 C 16.121094 16.832031 14.011719 18.292969 11.875 18.214844 C 9.796875 18.226562 7.914062 16.730469 7.210938 14.796875 Z "
             id="path34" />
        </g>
      </g>
      <g
         clip-path="url(#4)"
         id="g36">
        <g
           clip-path="url(#5)"
           id="g38">
          <path
             d="M 12 9.382812 C 9.945312 9.382812 8.28125 11.054688 8.28125 13.136719 C 8.28125 13.136719 8.257812 13.488281 8.363281 13.886719 L 14.078125 13.886719 C 13.921875 14.320312 13.644531 14.710938 13.269531 14.972656 C 12.40625 15.660156 11.097656 15.410156 10.359375 14.636719 L 8.59375 14.636719 C 9.167969 15.964844 10.476562 16.890625 12 16.890625 C 14.054688 16.890625 15.722656 15.210938 15.722656 13.136719 C 15.722656 13.136719 15.722656 12.75 15.648438 12.386719 L 9.933594 12.386719 C 10.253906 11.566406 11.023438 10.902344 11.914062 10.894531 C 11.960938 10.890625 12.003906 10.890625 12.046875 10.890625 C 12.648438 10.90625 13.226562 11.191406 13.632812 11.636719 L 15.410156 11.636719 C 14.835938 10.3125 13.527344 9.382812 12 9.382812 Z "
             id="path40" />
        </g>
      </g>
    </g>
    <clipPath
       id="8">
      <path
         d="M 5 3 L 19 3 L 19 21 L 5 21 Z "
         id="path43" />
    </clipPath>
    <clipPath
       id="9">
      <path
         d="M 11.15625 3.277344 L 11.15625 5.238281 C 8.386719 5.589844 6.136719 7.625 5.453125 10.300781 L 7.207031 10.300781 C 7.925781 8.371094 9.828125 6.863281 11.90625 6.878906 C 11.957031 6.878906 12.007812 6.878906 12.058594 6.878906 C 12.8125 6.882812 13.554688 7.070312 14.230469 7.410156 C 15.441406 7.960938 16.339844 9.046875 16.78125 10.300781 L 18.542969 10.300781 C 17.863281 7.625 15.613281 5.589844 12.84375 5.238281 L 12.84375 3.277344 Z M 5.453125 13.707031 C 6.136719 16.378906 8.386719 18.417969 11.15625 18.765625 L 11.15625 20.730469 L 12.84375 20.730469 L 12.84375 18.765625 C 15.613281 18.417969 17.863281 16.378906 18.542969 13.707031 L 16.804688 13.707031 C 16.121094 15.738281 14.011719 17.199219 11.875 17.125 C 9.796875 17.136719 7.914062 15.640625 7.210938 13.707031 Z "
         id="path46" />
    </clipPath>
    <clipPath
       id="A">
      <path
         d="M 8 8 L 16 8 L 16 16 L 8 16 Z "
         id="path49" />
    </clipPath>
    <clipPath
       id="B">
      <path
         d="M 12 8.210938 C 9.945312 8.210938 8.28125 9.882812 8.28125 11.960938 C 8.28125 11.960938 8.257812 12.316406 8.363281 12.710938 L 14.078125 12.710938 C 13.921875 13.148438 13.644531 13.539062 13.269531 13.796875 C 12.40625 14.484375 11.097656 14.234375 10.359375 13.464844 L 8.59375 13.464844 C 9.167969 14.789062 10.476562 15.714844 12 15.714844 C 14.054688 15.714844 15.722656 14.035156 15.722656 11.960938 C 15.722656 11.960938 15.722656 11.578125 15.648438 11.210938 L 9.933594 11.210938 C 10.253906 10.390625 11.023438 9.726562 11.914062 9.71875 C 11.960938 9.71875 12.003906 9.714844 12.046875 9.71875 C 12.648438 9.730469 13.226562 10.015625 13.632812 10.460938 L 15.410156 10.460938 C 14.835938 9.136719 13.527344 8.210938 12 8.210938 Z "
         id="path52" />
    </clipPath>
  </defs>
  <g
     id="g58"
     clip-path="url(#8)"
     style="fill:#ececec;fill-opacity:1"
     transform="matrix(0.91674125,0,0,0.91674127,1.0008954,0.99552351)">
    <g
       id="g60"
       clip-path="url(#9)"
       style="fill:#ececec;fill-opacity:1">
      <path
         style="fill:#ececec;fill-opacity:1"
         inkscape:connector-curvature="0"
         id="path62"
         d="m 11.15625,3.277344 0,1.960937 C 8.386719,5.589844 6.136719,7.625 5.453125,10.300781 l 1.753906,0 c 0.71875,-1.929687 2.621094,-3.4375 4.699219,-3.421875 0.05078,0 0.101562,0 0.152344,0 0.753906,0.00391 1.496094,0.191406 2.171875,0.53125 1.210937,0.550782 2.109375,1.636719 2.550781,2.890625 l 1.761719,0 C 17.863281,7.625 15.613281,5.589844 12.84375,5.238281 l 0,-1.960937 z M 5.453125,13.707031 c 0.683594,2.671875 2.933594,4.710938 5.703125,5.058594 l 0,1.964844 1.6875,0 0,-1.964844 c 2.769531,-0.347656 5.019531,-2.386719 5.699219,-5.058594 l -1.738281,0 C 16.121094,15.738281 14.011719,17.199219 11.875,17.125 9.796875,17.136719 7.914062,15.640625 7.210938,13.707031 Z" />
    </g>
  </g>
  <g
     id="g64"
     clip-path="url(#A)"
     style="fill:#ececec;fill-opacity:1"
     transform="matrix(0.91674125,0,0,0.91674127,1.0008954,0.99552351)">
    <g
       id="g66"
       clip-path="url(#B)"
       style="fill:#ececec;fill-opacity:1">
      <path
         style="fill:#ececec;fill-opacity:1"
         inkscape:connector-curvature="0"
         id="path68"
         d="m 12,8.292969 c -2.054688,0 -3.71875,1.671875 -3.71875,3.753906 0,0 -0.023438,0.351563 0.082031,0.75 l 5.714844,0 c -0.15625,0.433594 -0.433594,0.824219 -0.808594,1.085937 -0.863281,0.6875 -2.171875,0.4375 -2.910156,-0.335937 l -1.765625,0 c 0.574219,1.324219 1.882812,2.253906 3.40625,2.253906 2.054688,0 3.722656,-1.683593 3.722656,-3.753906 0,0 0,-0.386719 -0.07422,-0.75 l -5.714844,0 c 0.320312,-0.820313 1.089844,-1.484375 1.980468,-1.492187 0.04688,-0.00391 0.08984,-0.00391 0.132813,-0.00391 0.601563,0.011719 1.179687,0.300781 1.585937,0.742188 l 1.777344,0 C 14.835938,9.21875 13.527344,8.292969 12,8.292969 Z" />
    </g>
  </g>
</svg>

<svg xmlns="http://www.w3.org/2000/svg" xmlns:xlink="http://www.w3.org/1999/xlink" width="24" height="24" viewBox="0 0 24 24">
 <defs>
  <filter id="0" filterUnits="objectBoundingBox" x="0" y="0" width="24" height="24">
   <feColorMatrix type="matrix" in="SourceGraphic" values="0 0 0 0 1 0 0 0 0 1 0 0 0 0 1 0 0 0 1 0"/>
  </filter>
  <mask id="1">
   <g filter="url(#0)">
    <rect width="24" height="24" fill-opacity="0.302"/>
   </g>
  </mask>
  <clipPath id="2">
   <path d="M 5 4 L 19 4 L 19 22 L 5 22 Z "/>
  </clipPath>
  <clipPath id="3">
   <path d="M 11.15625 4.367188 L 11.15625 6.332031 C 8.386719 6.679688 6.136719 8.71875 5.453125 11.390625 L 7.207031 11.390625 C 7.925781 9.460938 9.828125 7.957031 11.90625 7.96875 C 11.957031 7.96875 12.007812 7.96875 12.058594 7.96875 C 12.8125 7.972656 13.554688 8.160156 14.230469 8.5 C 15.441406 9.050781 16.339844 10.136719 16.78125 11.390625 L 18.542969 11.390625 C 17.863281 8.71875 15.613281 6.679688 12.84375 6.332031 L 12.84375 4.367188 Z M 5.453125 14.796875 C 6.136719 17.472656 8.386719 19.507812 11.15625 19.855469 L 11.15625 21.820312 L 12.84375 21.820312 L 12.84375 19.855469 C 15.613281 19.507812 17.863281 17.472656 18.542969 14.796875 L 16.804688 14.796875 C 16.121094 16.832031 14.011719 18.292969 11.875 18.214844 C 9.796875 18.226562 7.914062 16.730469 7.210938 14.796875 Z "/>
  </clipPath>
  <clipPath id="4">
   <path d="M 8 9 L 16 9 L 16 17 L 8 17 Z "/>
  </clipPath>
  <clipPath id="5">
   <path d="M 12 9.300781 C 9.945312 9.300781 8.28125 10.972656 8.28125 13.054688 C 8.28125 13.054688 8.257812 13.40625 8.363281 13.804688 L 14.078125 13.804688 C 13.921875 14.238281 13.644531 14.628906 13.269531 14.886719 C 12.40625 15.578125 11.097656 15.328125 10.359375 14.554688 L 8.59375 14.554688 C 9.167969 15.878906 10.476562 16.804688 12 16.804688 C 14.054688 16.804688 15.722656 15.125 15.722656 13.054688 C 15.722656 13.054688 15.722656 12.667969 15.648438 12.300781 L 9.933594 12.300781 C 10.253906 11.480469 11.023438 10.816406 11.914062 10.808594 C 11.960938 10.808594 12.003906 10.808594 12.046875 10.808594 C 12.648438 10.820312 13.226562 11.105469 13.632812 11.550781 L 15.410156 11.550781 C 14.835938 10.226562 13.527344 9.300781 12 9.300781 Z "/>
  </clipPath>
  <clipPath id="6">
   <rect width="24" height="24"/>
  </clipPath>
  <g id="7" clip-path="url(#6)">
   <g clip-path="url(#2)">
    <g clip-path="url(#3)">
     <path d="M 11.15625 4.367188 L 11.15625 6.332031 C 8.386719 6.679688 6.136719 8.71875 5.453125 11.390625 L 7.207031 11.390625 C 7.925781 9.460938 9.828125 7.957031 11.90625 7.96875 C 11.957031 7.96875 12.007812 7.96875 12.058594 7.96875 C 12.8125 7.972656 13.554688 8.160156 14.230469 8.5 C 15.441406 9.050781 16.339844 10.136719 16.78125 11.390625 L 18.542969 11.390625 C 17.863281 8.71875 15.613281 6.679688 12.84375 6.332031 L 12.84375 4.367188 Z M 5.453125 14.796875 C 6.136719 17.472656 8.386719 19.507812 11.15625 19.855469 L 11.15625 21.820312 L 12.84375 21.820312 L 12.84375 19.855469 C 15.613281 19.507812 17.863281 17.472656 18.542969 14.796875 L 16.804688 14.796875 C 16.121094 16.832031 14.011719 18.292969 11.875 18.214844 C 9.796875 18.226562 7.914062 16.730469 7.210938 14.796875 Z "/>
    </g>
   </g>
   <g clip-path="url(#4)">
    <g clip-path="url(#5)">
     <path d="M 12 9.382812 C 9.945312 9.382812 8.28125 11.054688 8.28125 13.136719 C 8.28125 13.136719 8.257812 13.488281 8.363281 13.886719 L 14.078125 13.886719 C 13.921875 14.320312 13.644531 14.710938 13.269531 14.972656 C 12.40625 15.660156 11.097656 15.410156 10.359375 14.636719 L 8.59375 14.636719 C 9.167969 15.964844 10.476562 16.890625 12 16.890625 C 14.054688 16.890625 15.722656 15.210938 15.722656 13.136719 C 15.722656 13.136719 15.722656 12.75 15.648438 12.386719 L 9.933594 12.386719 C 10.253906 11.566406 11.023438 10.902344 11.914062 10.894531 C 11.960938 10.890625 12.003906 10.890625 12.046875 10.890625 C 12.648438 10.90625 13.226562 11.191406 13.632812 11.636719 L 15.410156 11.636719 C 14.835938 10.3125 13.527344 9.382812 12 9.382812 Z "/>
    </g>
   </g>
  </g>
  <clipPath id="8">
   <path d="M 5 3 L 19 3 L 19 21 L 5 21 Z "/>
  </clipPath>
  <clipPath id="9">
   <path d="M 11.15625 3.277344 L 11.15625 5.238281 C 8.386719 5.589844 6.136719 7.625 5.453125 10.300781 L 7.207031 10.300781 C 7.925781 8.371094 9.828125 6.863281 11.90625 6.878906 C 11.957031 6.878906 12.007812 6.878906 12.058594 6.878906 C 12.8125 6.882812 13.554688 7.070312 14.230469 7.410156 C 15.441406 7.960938 16.339844 9.046875 16.78125 10.300781 L 18.542969 10.300781 C 17.863281 7.625 15.613281 5.589844 12.84375 5.238281 L 12.84375 3.277344 Z M 5.453125 13.707031 C 6.136719 16.378906 8.386719 18.417969 11.15625 18.765625 L 11.15625 20.730469 L 12.84375 20.730469 L 12.84375 18.765625 C 15.613281 18.417969 17.863281 16.378906 18.542969 13.707031 L 16.804688 13.707031 C 16.121094 15.738281 14.011719 17.199219 11.875 17.125 C 9.796875 17.136719 7.914062 15.640625 7.210938 13.707031 Z "/>
  </clipPath>
  <clipPath id="A">
   <path d="M 8 8 L 16 8 L 16 16 L 8 16 Z "/>
  </clipPath>
  <clipPath id="B">
   <path d="M 12 8.210938 C 9.945312 8.210938 8.28125 9.882812 8.28125 11.960938 C 8.28125 11.960938 8.257812 12.316406 8.363281 12.710938 L 14.078125 12.710938 C 13.921875 13.148438 13.644531 13.539062 13.269531 13.796875 C 12.40625 14.484375 11.097656 14.234375 10.359375 13.464844 L 8.59375 13.464844 C 9.167969 14.789062 10.476562 15.714844 12 15.714844 C 14.054688 15.714844 15.722656 14.035156 15.722656 11.960938 C 15.722656 11.960938 15.722656 11.578125 15.648438 11.210938 L 9.933594 11.210938 C 10.253906 10.390625 11.023438 9.726562 11.914062 9.71875 C 11.960938 9.71875 12.003906 9.714844 12.046875 9.71875 C 12.648438 9.730469 13.226562 10.015625 13.632812 10.460938 L 15.410156 10.460938 C 14.835938 9.136719 13.527344 8.210938 12 8.210938 Z "/>
  </clipPath>
 </defs>
 <g>
  <use xlink:href="#7" mask="url(#1)"/>
  <g clip-path="url(#8)">
   <g clip-path="url(#9)">
    <path d="M 11.15625 3.277344 L 11.15625 5.238281 C 8.386719 5.589844 6.136719 7.625 5.453125 10.300781 L 7.207031 10.300781 C 7.925781 8.371094 9.828125 6.863281 11.90625 6.878906 C 11.957031 6.878906 12.007812 6.878906 12.058594 6.878906 C 12.8125 6.882812 13.554688 7.070312 14.230469 7.410156 C 15.441406 7.960938 16.339844 9.046875 16.78125 10.300781 L 18.542969 10.300781 C 17.863281 7.625 15.613281 5.589844 12.84375 5.238281 L 12.84375 3.277344 Z M 5.453125 13.707031 C 6.136719 16.378906 8.386719 18.417969 11.15625 18.765625 L 11.15625 20.730469 L 12.84375 20.730469 L 12.84375 18.765625 C 15.613281 18.417969 17.863281 16.378906 18.542969 13.707031 L 16.804688 13.707031 C 16.121094 15.738281 14.011719 17.199219 11.875 17.125 C 9.796875 17.136719 7.914062 15.640625 7.210938 13.707031 Z " fill="#dcdcdc"/>
   </g>
  </g>
  <g clip-path="url(#A)">
   <g clip-path="url(#B)">
    <path d="M 12 8.292969 C 9.945312 8.292969 8.28125 9.964844 8.28125 12.046875 C 8.28125 12.046875 8.257812 12.398438 8.363281 12.796875 L 14.078125 12.796875 C 13.921875 13.230469 13.644531 13.621094 13.269531 13.882812 C 12.40625 14.570312 11.097656 14.320312 10.359375 13.546875 L 8.59375 13.546875 C 9.167969 14.871094 10.476562 15.800781 12 15.800781 C 14.054688 15.800781 15.722656 14.117188 15.722656 12.046875 C 15.722656 12.046875 15.722656 11.660156 15.648438 11.296875 L 9.933594 11.296875 C 10.253906 10.476562 11.023438 9.8125 11.914062 9.804688 C 11.960938 9.800781 12.003906 9.800781 12.046875 9.800781 C 12.648438 9.8125 13.226562 10.101562 13.632812 10.542969 L 15.410156 10.542969 C 14.835938 9.21875 13.527344 8.292969 12 8.292969 Z " fill="#dcdcdc"/>
   </g>
  </g>
 </g>
</svg>
